resources/icons/20px/layout-two-columns.svg

<svg width="20" height="20" viewBox="0 0 20 20" fill="none" xmlns="http://www.w3.org/2000/svg">
<path d="M0 1C0 0.447716 0.447715 0 1 0H8C8.55228 0 9 0.447715 9 1V19C9 19.5523 8.55228 20 8 20H1C0.447715 20 0 19.5523 0 19V1Z" fill="black"/>
<path d="M11 1C11 0.447716 11.4477 0 12 0H19C19.5523 0 20 0.447715 20 1V19C20 19.5523 19.5523 20 19 20H12C11.4477 20 11 19.5523 11 19V1Z" fill="black"/>
</svg>

<svg xmlns="http://www.w3.org/2000/svg" viewBox="0 0 20 20">
  <path d="M0 1a1 1 0 0 1 1-1h7a1 1 0 0 1 1 1v18a1 1 0 0 1-1 1H1a1 1 0 0 1-1-1zM11 1a1 1 0 0 1 1-1h7a1 1 0 0 1 1 1v18a1 1 0 0 1-1 1h-7a1 1 0 0 1-1-1z"/>
</svg>
